X:80
T:Gan Ainm
R:Slip Jig
S:Paddy Cronin, Kerry (fiddle)
D:From RTE 'The Pure Drop'
H:There's an extra note in the second part. Though here marked as a bar of
H:10/8, the effect is of a 4/4 thrown in among 3/4s.
N:As played
M:9/8
Z:Bernie Stocks
K:G
|: E2B {d}BGE BGE | AFA AdB AFD | EFG ABc BGE |1 BeB AGF EzB, :|2 BeB AGF Ezf ||
eBe gfg bge | d^cd fdf {b}afd | eBe ~g3 bge |\
M:10/8
gfe Bed e3f |
M:9/8
eBe gfg bge | d^cd fdf {b}afd | (3efge {f}edB {d}BAG | BdB AFD E2B ||
